X:4
T:Cantiga 119
C:Alfonso X (13th Century Spanish)
M:6/8
L:1/8
K:E minor
c2c c2A | c2c c2d | e2d cBA | G3 G2A | B2B B2A | B2B B2A | \
c2c/B/ A2G | A3 A3 || 
e2e d2f | g2f e2d | c2B A2G | c3 c3 | \
e2e d2f | g2f e2d | c2B A2G | A3 A3 |
c2c c2A | c2c c2d | e2d cBA | G3 G2A | B2B B2A | B2B B2A | \
c2c/B/ A2G | A3 A3
:| 

